X:18199
T:Valse  Fleuret
M:3/4
L:1/4
K:G
BAG|d2B|BAG|g3|gfe|d2A|cBA|B2G|BAG|d2B|BAG|g3|
gfg|b2a|g2e|d3:||:Bdg|baf/g/|age|d3|Bed|c/d/ c/B/ A/G/|
ABc|e2d|Bdg|baf/g/|age|d3|Bdg|fab|c'af|g3:|
